X: 29938
T: O'Sullivan's March
R: jig
M: 6/8
K: Gmajor
|:D|GBA ABd|edB A2 D|GBA B2 A|AGE GED|
GBA ABd|edB A2 D|GBA B2 A|AGF G2:|
|:d|e3 edB|ege edB|d3 def|gfe dBA|
G2 A|B2 d ege|dBA GED|G2 A BGF:|

